images/index/svg/graphics/welcome.svg

<svg xmlns="http://www.w3.org/2000/svg" width="256" height="85" fill="none"><path fill="#81B3D3" d="M221.7 37v7.7h-20.8V0h20.8v7.6h-13.2v10.8H219v7.7h-10.5V37h13.2ZM188.9 0h7.6v44.7h-7.6v-22l-3 11.4h-7.4l-3-11.4v22h-7.6V0h7.6l6.8 21.6L188.9 0ZM157 7.6h-5.5v29.3h5.5V7.6Zm3-7.6c2.5 0 4.7 2.1 4.7 4.7V40c0 2.6-2.2 4.7-4.7 4.7h-11.4c-2.6 0-4.7-2.2-4.7-4.7V4.7c0-2.6 2.1-4.7 4.7-4.7H160Zm-28 28.2 7.7-1.8V40c0 2.6-2.2 4.7-4.7 4.7h-11.4c-2.6 0-4.7-2.2-4.7-4.7V4.7c0-2.6 2.1-4.7 4.7-4.7H135c2.5 0 4.7 2.1 4.7 4.7v9.1l-7.7 1.8v-8h-5.5v29.3h5.5v-8.7ZM115.2 37v7.7H97V0h7.6v37h10.6Zm-21.4 0v7.7H73V0h20.8v7.6H80.6v10.8h10.5v7.7H80.6V37h13.2ZM61.6 0h7.7L68 44.7H53.5l-2-18.5-2 18.5H35L34 0h7.6l.6 37h.8l4.8-37h7.6l4.9 37h.8l.5-37Z"/><path fill="#766458" d="m51.3 55.7-2.8 4.9h-2.7l-.9 1.4h2.8l-6.1 10.4c-1.3 2.2-.4 4.2 2.1 4.2 1.8 0 3.7-1.3 5.6-3.1 0 3.8 5.3 4.5 8.6.5h.7c1.8 0 4.6-1.1 6.2-2.9-.2-.4-.7-.9-1.1-1l-.2.2c-1.4 1.5-3 2.2-4.6 2.2l2.8-4.8c1.8-3.1.1-6.1-2.7-6.1-2.3 0-4.1.9-5.9 3.9l-1.5 2.6-1.2 2.1-.2.2c-2.2 2.5-4.3 4.5-5.6 4.5-.7 0-1-.5-.3-1.6l6.5-11.2h2.5l.7-1.5h-2.5l2.8-4.9h-3Zm7.5 7.8c1 .1 1.4 1.3.4 3L57 70.2h-.1c-1 0-1.8.8-1.8 1.8 0 .4.1.7.3 1v.1c-1.4 2.4-4.9 2-3.1-1.1l2.3-3.9 1.5-2.4c.9-1.6 2-2.2 2.7-2.2Zm22-7.8L78 60.6h-2.7l-.9 1.4h2.8L71 72.4c-1.3 2.2-.4 4.2 2.1 4.2 1.2 0 2.5-.6 3.9-1.6l-.8 1.3h3l4.6-7.9c4.6-5.8 6.7-5 5.4-2.8l-3.9 6.7c-1.3 2.2-.4 4.2 2.1 4.2 1.8 0 3.8-1.4 5.7-3.2.1 1.9 1.7 3.2 4.1 3.2 3.4 0 6.8-2.6 9.3-5.5-.2-.4-.7-.9-1.1-1l-.2.2c-2.2 2.5-5 4.5-7.1 4.5-1.9 0-3-1.1-1.6-3.6l.3-.5c1.9.8 5.6.4 7.9-3.4l.4-.7c1.6-2.8.1-4.8-2.4-4.8-2.4 0-4.4 1.3-5.7 3.4l-2.9 5-.2.2c-2.2 2.5-4.3 4.5-5.6 4.5-.7 0-1-.5-.4-1.6l4.4-7.5c1.3-2.3.1-3.9-1.6-3.9-1.3 0-2.7.7-4.2 2.3l4.8-8.3h-3l-8.4 14.4-.2.2c-2.2 2.5-4.3 4.5-5.6 4.5-.7 0-1-.5-.3-1.6l6.5-11.2h2.5l.9-1.4h-2.5l2.8-4.9-3.2-.1Zm21.3 8.2c1-.1 1.5.9.5 2.6l-.4.7c-1.4 2.4-3.4 2.4-4.5 2l1.9-3.4c.7-1.2 1.7-1.8 2.5-1.9Zm44.3-5.4c-1.7 1.5-1.9 3.2-.8 4.6l.3.3c-1.3 1.9-3.1 4.4-5.1 6.7l-.2.2c-1.4 1.5-3 2.2-4.6 2.2l2.8-4.8c1.8-3.1.1-6.1-2.7-6.1-2.3 0-4.1.9-5.9 3.9l-1.5 2.6-1.2 2.1-.2.2c-2.5 2.8-4.6 4.7-7 5.7l6.8-11.4h-1.8c0-1.2-1.3-2.9-3.2-2.9-1.6 0-3.9 1.3-5.2 3.4l-4.2 7.2c-1.3 2.2-.4 4.2 2.1 4.2.8 0 1.9-.4 2.9-1l-.8 1.4c-4.1 1.2-6.6 2.9-6.6 5.1 0 2.9 4.4 3.5 6.6-.2l2.3-3.9c2.4-.7 4.8-2.1 7.2-4.5 0 3.8 5.3 4.6 8.6.5h.7c1.8 0 4.6-1.1 6.2-2.9 1.4-1.7 2.6-3.2 5-6.4l.4.5c.4.5.5 1.1.2 1.7l-3.2 5.5c-1.3 2.2-.4 4.2 2.1 4.2 1.5 0 3.2-1 4.8-2.4-.1 1.4.9 2.4 2.6 2.4.8 0 1.9-.4 2.9-1l-.8 1.4c-4.1 1.2-6.6 2.9-6.6 5.1 0 2.9 4.4 3.5 6.6-.2l2.3-3.9c2.5-.8 4.9-2.2 7.4-4.6.1 1.9 1.7 3.2 4.1 3.2 2.5 0 4.9-1.4 7-3.2-.1 3.9 5.3 4.7 8.6.6h.7c.9 0 2.2-.3 3.4-.9-.8 2.1-.1 3.5 1.7 3.5 1.7 0 3.5-1.5 5-2.9-.3 1.6.7 2.9 2.6 2.9 2.5 0 5.4-2.6 7.9-5.5 1.7-2 3.2-4 4.3-5.4-1.2 3.1-.6 8.7-3.4 8.7-1 0-1.4-1.1-1.4-1.1l-1.9 1s.6 2.4 3.3 2.4c.3 0 .6 0 .8-.1h.1c3.1-.4 6.1-2.8 8.4-5.4-.2-.5-.7-.9-1.1-1l-.2.2c-1.1 1.2-2.3 2.3-3.6 3.2 1-2.8.8-7.2 2.6-11l-2.3-1.2c-1.2 1.7-4 5.6-6.7 8.7l-.2.2c-2.2 2.5-4.3 4.5-5.6 4.5-.7 0-1-.5-.3-1.6l6.4-11.2h-3l-5.4 9.3c-2.3 2.1-4.1 3.2-4.6 3-.8-.3 0-1.4.4-2.1l5.9-10.2h-3l-4.7 8.1-.2.2c-1.4 1.5-3 2.2-4.6 2.2l2.8-4.8c1.8-3.1.1-6.1-2.7-6.1-2.3 0-4.1.9-5.9 3.9l-1.5 2.6-1.2 2.1-.2.2c-2.2 2.5-5 4.5-7.1 4.5-1.9 0-3-1.1-1.6-3.6l.3-.5c1.9.8 5.6.4 7.9-3.4l.4-.7c1.6-2.8.1-4.8-2.4-4.8-2.4 0-4.4 1.3-5.7 3.4l-2.9 5-.2.2c-2.5 2.8-4.6 4.7-7 5.7l6.8-11.4h-1.8c0-1.2-1.3-2.9-3.2-2.9-1.6 0-3.9 1.3-5.2 3.4l-2.9 4.9-.2.2c-2.2 2.5-4.3 4.5-5.6 4.5-.7 0-1-.5-.3-1.6l3-5.2c1-1.8.6-2.9-.4-4l-1.7-2c-.4-.5-.4-1.1.2-1.7l-1.9-1.9Zm-10.3 5c1 .1 1.5 1.3.4 3l-2.2 3.7h-.1c-1 0-1.8.8-1.8 1.8 0 .4.1.7.3 1v.1c-1.4 2.4-4.9 2-3.1-1.1l2.3-3.9 1.5-2.4c.9-1.6 1.9-2.2 2.7-2.2Zm50.2 0c1 .1 1.5 1.3.4 3l-2.2 3.7h-.1c-1 0-1.8.8-1.8 1.8 0 .4.1.7.3 1v.1c-1.4 2.4-4.9 2-3.1-1.1l2.3-3.9 1.5-2.4c.8-1.6 1.9-2.2 2.7-2.2Zm-11.7.4c1-.1 1.5.9.5 2.6l-.4.7c-1.5 2.4-3.4 2.4-4.5 2l1.9-3.4c.7-1.2 1.7-1.8 2.5-1.9Zm-52.4.2c1 0 1.7.9.8 2.4l-2.3 4c-1.8 2.9-3.7 4.3-4.9 4.3-.7 0-1-.5-.3-1.6l4.2-7.3c.7-1.2 1.7-1.8 2.5-1.8Zm38.9 0c1 0 1.7.9.8 2.4l-2.3 4c-1.8 2.9-3.7 4.3-4.9 4.3-.7 0-1-.5-.3-1.6l4.2-7.3c.7-1.2 1.7-1.8 2.5-1.8ZM115.8 79l-1.4 2.4c-.6 1.1-1.7.9-1.7.1 0-.7.8-1.6 3.1-2.5Zm38.9 0-1.4 2.4c-.6 1.1-1.7.9-1.7.1.1-.7.8-1.6 3.1-2.5ZM0 67.4h28.9v1.9H0v-1.9Zm227.1 0H256v1.9h-28.9v-1.9Z"/></svg>

<svg width="256" height="85" viewBox="0 0 256 85" fill="none" xmlns="http://www.w3.org/2000/svg">
<path d="M221.7 37V44.7H200.9V0H221.7V7.6H208.5V18.4H219V26.1H208.5V37H221.7ZM188.9 0H196.5V44.7H188.9V22.7L185.9 34.1H178.5L175.5 22.7V44.7H167.9V0H175.5L182.3 21.6L188.9 0ZM157 7.6H151.5V36.9H157V7.6ZM160 0C162.5 0 164.7 2.1 164.7 4.7V40C164.7 42.6 162.5 44.7 160 44.7H148.6C146 44.7 143.9 42.5 143.9 40V4.7C143.9 2.1 146 0 148.6 0H160ZM132 28.2L139.7 26.4V40C139.7 42.6 137.5 44.7 135 44.7H123.6C121 44.7 118.9 42.5 118.9 40V4.7C118.9 2.1 121 0 123.6 0H135C137.5 0 139.7 2.1 139.7 4.7V13.8L132 15.6V7.6H126.5V36.9H132V28.2ZM115.2 37V44.7H97V0H104.6V37H115.2ZM93.8 37V44.7H73V0H93.8V7.6H80.6V18.4H91.1V26.1H80.6V37H93.8ZM61.6 0H69.3L68 44.7H53.5L51.5 26.2L49.5 44.7H35L34 0H41.6L42.2 37H43L47.8 0H55.4L60.3 37H61.1L61.6 0Z" fill="#81B3D3"/>
<path d="M51.3 55.7L48.5 60.6H45.8L44.9 62H47.7L41.6 72.4C40.3 74.6 41.2 76.6 43.7 76.6C45.5 76.6 47.4 75.3 49.3 73.5C49.3 77.3 54.6 78 57.9 74H58.6C60.4 74 63.2 72.9 64.8 71.1C64.6 70.7 64.1 70.2 63.7 70.1L63.5 70.3C62.1 71.8 60.5 72.5 58.9 72.5L61.7 67.7C63.5 64.6 61.8 61.6 59 61.6C56.7 61.6 54.9 62.5 53.1 65.5L51.6 68.1L50.4 70.2L50.2 70.4C48 72.9 45.9 74.9 44.6 74.9C43.9 74.9 43.6 74.4 44.3 73.3L50.8 62.1H53.3L54 60.6H51.5L54.3 55.7H51.3ZM58.8 63.5C59.8 63.6 60.2 64.8 59.2 66.5L57 70.2H56.9C55.9 70.2 55.1 71 55.1 72C55.1 72.4 55.2 72.7 55.4 73V73.1C54 75.5 50.5 75.1 52.3 72L54.6 68.1L56.1 65.7C57 64.1 58.1 63.5 58.8 63.5ZM80.8 55.7L78 60.6H75.3L74.4 62H77.2L71 72.4C69.7 74.6 70.6 76.6 73.1 76.6C74.3 76.6 75.6 76 77 75L76.2 76.3H79.2L83.8 68.4C88.4 62.6 90.5 63.4 89.2 65.6L85.3 72.3C84 74.5 84.9 76.5 87.4 76.5C89.2 76.5 91.2 75.1 93.1 73.3C93.2 75.2 94.8 76.5 97.2 76.5C100.6 76.5 104 73.9 106.5 71C106.3 70.6 105.8 70.1 105.4 70L105.2 70.2C103 72.7 100.2 74.7 98.1 74.7C96.2 74.7 95.1 73.6 96.5 71.1L96.8 70.6C98.7 71.4 102.4 71 104.7 67.2L105.1 66.5C106.7 63.7 105.2 61.7 102.7 61.7C100.3 61.7 98.3 63 97 65.1L94.1 70.1L93.9 70.3C91.7 72.8 89.6 74.8 88.3 74.8C87.6 74.8 87.3 74.3 87.9 73.2L92.3 65.7C93.6 63.4 92.4 61.8 90.7 61.8C89.4 61.8 88 62.5 86.5 64.1L91.3 55.8H88.3L79.9 70.2L79.7 70.4C77.5 72.9 75.4 74.9 74.1 74.9C73.4 74.9 73.1 74.4 73.8 73.3L80.3 62.1H82.8L83.7 60.7H81.2L84 55.8L80.8 55.7ZM102.1 63.9C103.1 63.8 103.6 64.8 102.6 66.5L102.2 67.2C100.8 69.6 98.8 69.6 97.7 69.2L99.6 65.8C100.3 64.6 101.3 64 102.1 63.9ZM146.4 58.5C144.7 60 144.5 61.7 145.6 63.1L145.9 63.4C144.6 65.3 142.8 67.8 140.8 70.1L140.6 70.3C139.2 71.8 137.6 72.5 136 72.5L138.8 67.7C140.6 64.6 138.9 61.6 136.1 61.6C133.8 61.6 132 62.5 130.2 65.5L128.7 68.1L127.5 70.2L127.3 70.4C124.8 73.2 122.7 75.1 120.3 76.1L127.1 64.7H125.3C125.3 63.5 124 61.8 122.1 61.8C120.5 61.8 118.2 63.1 116.9 65.2L112.7 72.4C111.4 74.6 112.3 76.6 114.8 76.6C115.6 76.6 116.7 76.2 117.7 75.6L116.9 77C112.8 78.2 110.3 79.9 110.3 82.1C110.3 85 114.7 85.6 116.9 81.9L119.2 78C121.6 77.3 124 75.9 126.4 73.5C126.4 77.3 131.7 78.1 135 74H135.7C137.5 74 140.3 72.9 141.9 71.1C143.3 69.4 144.5 67.9 146.9 64.7L147.3 65.2C147.7 65.7 147.8 66.3 147.5 66.9L144.3 72.4C143 74.6 143.9 76.6 146.4 76.6C147.9 76.6 149.6 75.6 151.2 74.2C151.1 75.6 152.1 76.6 153.8 76.6C154.6 76.6 155.7 76.2 156.7 75.6L155.9 77C151.8 78.2 149.3 79.9 149.3 82.1C149.3 85 153.7 85.6 155.9 81.9L158.2 78C160.7 77.2 163.1 75.8 165.6 73.4C165.7 75.3 167.3 76.6 169.7 76.6C172.2 76.6 174.6 75.2 176.7 73.4C176.6 77.3 182 78.1 185.3 74H186C186.9 74 188.2 73.7 189.4 73.1C188.6 75.2 189.3 76.6 191.1 76.6C192.8 76.6 194.6 75.1 196.1 73.7C195.8 75.3 196.8 76.6 198.7 76.6C201.2 76.6 204.1 74 206.6 71.1C208.3 69.1 209.8 67.1 210.9 65.7C209.7 68.8 210.3 74.4 207.5 74.4C206.5 74.4 206.1 73.3 206.1 73.3L204.2 74.3C204.2 74.3 204.8 76.7 207.5 76.7C207.8 76.7 208.1 76.7 208.3 76.6H208.4C211.5 76.2 214.5 73.8 216.8 71.2C216.6 70.7 216.1 70.3 215.7 70.2L215.5 70.4C214.4 71.6 213.2 72.7 211.9 73.6C212.9 70.8 212.7 66.4 214.5 62.6L212.2 61.4C211 63.1 208.2 67 205.5 70.1L205.3 70.3C203.1 72.8 201 74.8 199.7 74.8C199 74.8 198.7 74.3 199.4 73.2L205.8 62H202.8L197.4 71.3C195.1 73.4 193.3 74.5 192.8 74.3C192 74 192.8 72.9 193.2 72.2L199.1 62H196.1L191.4 70.1L191.2 70.3C189.8 71.8 188.2 72.5 186.6 72.5L189.4 67.7C191.2 64.6 189.5 61.6 186.7 61.6C184.4 61.6 182.6 62.5 180.8 65.5L179.3 68.1L178.1 70.2L177.9 70.4C175.7 72.9 172.9 74.9 170.8 74.9C168.9 74.9 167.8 73.8 169.2 71.3L169.5 70.8C171.4 71.6 175.1 71.2 177.4 67.4L177.8 66.7C179.4 63.9 177.9 61.9 175.4 61.9C173 61.9 171 63.2 169.7 65.3L166.8 70.3L166.6 70.5C164.1 73.3 162 75.2 159.6 76.2L166.4 64.8H164.6C164.6 63.6 163.3 61.9 161.4 61.9C159.8 61.9 157.5 63.2 156.2 65.3L153.3 70.2L153.1 70.4C150.9 72.9 148.8 74.9 147.5 74.9C146.8 74.9 146.5 74.4 147.2 73.3L150.2 68.1C151.2 66.3 150.8 65.2 149.8 64.1L148.1 62.1C147.7 61.6 147.7 61 148.3 60.4L146.4 58.5ZM136.1 63.5C137.1 63.6 137.6 64.8 136.5 66.5L134.3 70.2H134.2C133.2 70.2 132.4 71 132.4 72C132.4 72.4 132.5 72.7 132.7 73V73.1C131.3 75.5 127.8 75.1 129.6 72L131.9 68.1L133.4 65.7C134.3 64.1 135.3 63.5 136.1 63.5ZM186.3 63.5C187.3 63.6 187.8 64.8 186.7 66.5L184.5 70.2H184.4C183.4 70.2 182.6 71 182.6 72C182.6 72.4 182.7 72.7 182.9 73V73.1C181.5 75.5 178 75.1 179.8 72L182.1 68.1L183.6 65.7C184.4 64.1 185.5 63.5 186.3 63.5ZM174.6 63.9C175.6 63.8 176.1 64.8 175.1 66.5L174.7 67.2C173.2 69.6 171.3 69.6 170.2 69.2L172.1 65.8C172.8 64.6 173.8 64 174.6 63.9ZM122.2 64.1C123.2 64.1 123.9 65 123 66.5L120.7 70.5C118.9 73.4 117 74.8 115.8 74.8C115.1 74.8 114.8 74.3 115.5 73.2L119.7 65.9C120.4 64.7 121.4 64.1 122.2 64.1ZM161.1 64.1C162.1 64.1 162.8 65 161.9 66.5L159.6 70.5C157.8 73.4 155.9 74.8 154.7 74.8C154 74.8 153.7 74.3 154.4 73.2L158.6 65.9C159.3 64.7 160.3 64.1 161.1 64.1ZM115.8 79L114.4 81.4C113.8 82.5 112.7 82.3 112.7 81.5C112.7 80.8 113.5 79.9 115.8 79ZM154.7 79L153.3 81.4C152.7 82.5 151.6 82.3 151.6 81.5C151.7 80.8 152.4 79.9 154.7 79ZM0 67.4H28.9V69.3H0V67.4ZM227.1 67.4H256V69.3H227.1V67.4Z" fill="#766458"/>
</svg>
